X:1
T:Title
%%score 1 2 3 4
L:1/8
M:4/4
K:Bb
V:1 treble nm="Church Organ, Soprano"
V:2 treble nm="French Horn, Alto"
V:3 bass nm="Trombone, Tenor"
V:4 bass nm="Tuba, Bass"
V:1
 d2 c>B A2 G2 | G4 F4 | D2 G>G D2 G2 | G4 F4 | D2 F>F B2 d2 | d4 A4 | =B2 d>d d2 _d2 | d4 f4 | %8
w: By~C.~Harold~Lowden * * * *||||||||
 d2 c>B A2 G2 | G4 F4 | D2 G>G ^F2 A2 | A4 G4 | B2 B>B c2 B2 | d4 B4 | G2 d2 c3 B | B6 z2 | d4 c4 | %17
w: |||||||||
 B4 G4 | F2 G2 A2 B2 | B4 A4 | e4 d4 | c4 A4 | G2 A2 B2 A2 | G4 F4 | d4 c4 | =B4 G4 | c2 c2 d2 G2 | %27
w: ||||||||||
 e4 =e4 | f2 d2 B2 e2 | c4 c4 | B8 | B2 z2 z4 |] %32
w: |||||
V:2
 [DF]2 [DF]2 [DF]2 [DF]2 | D2 D2 D2 D2 | [B,D]2 [B,D]2 [B,D]2 [B,D]2 | %3
 [A,E]2 [A,E]2 [A,E]2 [A,E]2 | [B,D]2 D2 [DF]2 [DFB]2 | [D^FA]2 [DFA]2 [DF]2 [DF]2 | %6
 [=E_A]2 [EAB]2 [EG=A]2 [EGA]2 | [D^FA]2 A2 [=FAce]2 [FAce]2 | [DF]2 [DF]2 [DF]2 [DF]2 | %9
 D2 D2 D2 D2 | B,2 D2 D2 [DF]2 | D2 D2 D2 D2 | [EG]2 [EG]2 [CG]2 [_DG]2 | %13
 [DFB]2 [DFB]2 [DG]2 [DG]2 | [C=EG]2 [EB]2 [_EA]3 [DF] | [DF]6 z2 | z2 [DFB]2 z2 [DF]2 | %17
 z2 [DF]2 z2 [DF]2 | D2 [DF]2 [DF]2 [DF]2 | z2 [EF]2 z2 [EF]2 | z2 [EA]2 z2 [EA]2 | %21
 z2 [EA]2 z2 [EF]2 | E2 [EF]2 [EF]2 [EF]2 | z2 [B,D]2 z2 [B,D]2 | z2 [DFB]2 z2 [DF]2 | %25
 z2 [DG]2 z2 [DF]2 | [EG]2 [EG]2 [FG]2 F2 | z2 [EGc]2 z2 [GBc]2 | [FBd]2 [FB]2 [DG]2 [EGc]2 | %29
 [EG]4 [EFA]4 | [DF]8 | [DF]2 z2 z4 |] %32
V:3
 F,2 F,2 F,2 F,2 | F,2 F,2 F,2 F,2 | F,2 F,2 F,2 F,2 | F,2 F,2 F,2 F,2 | F,2 B,2 B,2 B,2 | %5
w: Sing~ out~ glad some~|car * ols,~ *|Set~ all~ ech oes~|ring * ing!~ *|Wel come~ joy ous~|
 A,2 A,2 A,2 A,2 | =E,2 E,2 A,2 A,2 | D,2 D,2 C,2 F,,2 | F,2 F,2 F,2 F,2 | F,2 F,2 F,2 F,2 | %10
w: sea * son,~ *|Wel come~ now~ with~|sing * ing.~ *|Light~ in~ midst~ of~|dark * ness,~ *|
 F,2 B,2 A,2[K:treble] C2 | C2 C2 B,2 B,2 | E,2 E,2 =E,2 E,2 | F,2 F,2 G,2 G,2 | C,2 C,2 F,2 F,2 | %15
w: Com ing~ realms~ of~|day;~ * * *|Hail~ to~ King~ of~|Glo * ry,~ *|'Neath~ the~ star~ *|
 B,6 z2 | B,,2 z2 F,,2 z2 | B,,2 z2 F,,2 z2 | B,,2 z2 F,,2 z2 | C,2 z2 F,,2 z2 | C,2 z2 F,,2 z2 | %21
w: lay!~|Wel come!~|wel come!~|Joy Christ|sea son!~|All~ thy~|
 A,,2 z2 F,,2 z2 | C,2 z2 F,,2 z2 | B,,2 z2 F,,2 z2 | B,,2 z2 _A,,2 z2 | G,,2 z2 =B,,2 z2 | %26
w: glad ness~|hath~ bless|reas on.~|Wel come!~|wel come!~|
 C,2 z2 G,,2 z2 | C,4 C,4 | F,,4 G,,2 C,,2 | E,,4 F,,4 | B,,8 | B,,2 z2 z4 |] %32
w: Joy Christ|sea son!~|Rich~ bless ings~|from~ a|bove!~||
V:4
 B,,2 F,,2 B,,2 F,,2 | B,,2 F,,2 B,,2 F,,2 | B,,2 F,,2 B,,2 F,,2 | C,2 F,,2 C,2 F,,2 | %4
 B,,2 B,,2 B,,2 B,,2 | A,,2 A,,2 A,,2 A,,2 | =E,,2 E,,2 A,,2 A,,2 | D,,2 D,,2 C,,2 F,,,2 | %8
 B,,2 F,,2 B,,2 F,,2 | B,,2 F,,2 B,,2 F,,2 | B,,2 B,,2 D,2 D,2 | G,2 G,2 G,2 G,2 | %12
 E,,2 E,,2 =E,,2 E,,2 | F,,2 F,,2 G,,2 G,,2 | C,,2 C,,2 F,,2 F,,2 | B,,6 z2 | z8 | z8 | z8 | z8 | %20
 z8 | z8 | z8 | z8 | z8 | z8 | z8 | z8 | z8 | z8 | z8 | z8 |] %32

